images/3233178.svg

<?xml version="1.0" encoding="UTF-8"?>
<svg xmlns="http://www.w3.org/2000/svg" xmlns:xlink="http://www.w3.org/1999/xlink" width="300pt" height="300pt" viewBox="0 0 300 300" version="1.1">
<defs>
<g>
<symbol overflow="visible" id="glyph0-0">
<path style="stroke:none;" d="M 0.453125 1.59375 L 0.453125 -6.34375 L 4.953125 -6.34375 L 4.953125 1.59375 Z M 0.953125 1.09375 L 4.453125 1.09375 L 4.453125 -5.84375 L 0.953125 -5.84375 Z M 0.953125 1.09375 "/>
</symbol>
<symbol overflow="visible" id="glyph0-1">
<path style="stroke:none;" d="M 0.890625 -6.5625 L 4.65625 -6.5625 L 4.65625 -5.8125 L 1.765625 -5.8125 L 1.765625 -3.875 L 4.375 -3.875 L 4.375 -3.140625 L 1.765625 -3.140625 L 1.765625 0 L 0.890625 0 Z M 0.890625 -6.5625 "/>
</symbol>
<symbol overflow="visible" id="glyph0-2">
<path style="stroke:none;" d="M 0.890625 -6.5625 L 2.078125 -6.5625 L 4.984375 -1.078125 L 4.984375 -6.5625 L 5.84375 -6.5625 L 5.84375 0 L 4.65625 0 L 1.75 -5.484375 L 1.75 0 L 0.890625 0 Z M 0.890625 -6.5625 "/>
</symbol>
<symbol overflow="visible" id="glyph0-3">
<path style="stroke:none;" d="M 3.546875 -5.953125 C 2.898438 -5.953125 2.382812 -5.710938 2 -5.234375 C 1.625 -4.753906 1.4375 -4.101562 1.4375 -3.28125 C 1.4375 -2.445312 1.625 -1.789062 2 -1.3125 C 2.382812 -0.832031 2.898438 -0.59375 3.546875 -0.59375 C 4.191406 -0.59375 4.703125 -0.832031 5.078125 -1.3125 C 5.453125 -1.789062 5.640625 -2.445312 5.640625 -3.28125 C 5.640625 -4.101562 5.453125 -4.753906 5.078125 -5.234375 C 4.703125 -5.710938 4.191406 -5.953125 3.546875 -5.953125 Z M 3.546875 -6.6875 C 4.460938 -6.6875 5.195312 -6.375 5.75 -5.75 C 6.300781 -5.132812 6.578125 -4.3125 6.578125 -3.28125 C 6.578125 -2.238281 6.300781 -1.410156 5.75 -0.796875 C 5.195312 -0.179688 4.460938 0.125 3.546875 0.125 C 2.617188 0.125 1.878906 -0.179688 1.328125 -0.796875 C 0.773438 -1.410156 0.5 -2.238281 0.5 -3.28125 C 0.5 -4.3125 0.773438 -5.132812 1.328125 -5.75 C 1.878906 -6.375 2.617188 -6.6875 3.546875 -6.6875 Z M 3.546875 -6.6875 "/>
</symbol>
</g>
</defs>
<g id="surface34653">
<rect x="0" y="0" width="300" height="300" style="fill:rgb(100%,100%,100%);fill-opacity:1;stroke:none;"/>
<path style="fill:none;stroke-width:1.2;stroke-linecap:butt;stroke-linejoin:miter;stroke:rgb(0%,0%,0%);stroke-opacity:1;stroke-miterlimit:10;" d="M 62.492188 105.828125 L 85.671875 111.851562 "/>
<path style="fill:none;stroke-width:1.2;stroke-linecap:butt;stroke-linejoin:miter;stroke:rgb(0%,0%,0%);stroke-opacity:1;stroke-miterlimit:10;" d="M 63.394531 111.882812 L 81.9375 116.703125 "/>
<path style="fill:none;stroke-width:1.2;stroke-linecap:butt;stroke-linejoin:miter;stroke:rgb(0%,0%,0%);stroke-opacity:1;stroke-miterlimit:10;" d="M 45.683594 122.890625 L 62.492188 105.828125 "/>
<path style="fill:none;stroke-width:1.2;stroke-linecap:butt;stroke-linejoin:miter;stroke:rgb(0%,0%,0%);stroke-opacity:1;stroke-miterlimit:10;" d="M 85.671875 111.851562 L 92.046875 134.9375 "/>
<path style="fill:none;stroke-width:1.2;stroke-linecap:butt;stroke-linejoin:miter;stroke:rgb(0%,0%,0%);stroke-opacity:1;stroke-miterlimit:10;" d="M 92.046875 134.9375 L 75.238281 152.003906 "/>
<path style="fill:none;stroke-width:1.2;stroke-linecap:butt;stroke-linejoin:miter;stroke:rgb(0%,0%,0%);stroke-opacity:1;stroke-miterlimit:10;" d="M 86.351562 132.691406 L 72.90625 146.339844 "/>
<path style="fill:none;stroke-width:1.2;stroke-linecap:butt;stroke-linejoin:miter;stroke:rgb(0%,0%,0%);stroke-opacity:1;stroke-miterlimit:10;" d="M 92.046875 134.9375 L 115.226562 140.964844 "/>
<path style="fill:none;stroke-width:1.2;stroke-linecap:butt;stroke-linejoin:miter;stroke:rgb(0%,0%,0%);stroke-opacity:1;stroke-miterlimit:10;" d="M 75.238281 152.003906 L 52.058594 145.976562 "/>
<path style="fill:none;stroke-width:1.2;stroke-linecap:butt;stroke-linejoin:miter;stroke:rgb(0%,0%,0%);stroke-opacity:1;stroke-miterlimit:10;" d="M 52.058594 145.976562 L 45.683594 122.890625 "/>
<path style="fill:none;stroke-width:1.2;stroke-linecap:butt;stroke-linejoin:miter;stroke:rgb(0%,0%,0%);stroke-opacity:1;stroke-miterlimit:10;" d="M 56.851562 142.171875 L 51.753906 123.699219 "/>
<path style="fill:none;stroke-width:1.2;stroke-linecap:butt;stroke-linejoin:miter;stroke:rgb(0%,0%,0%);stroke-opacity:1;stroke-miterlimit:10;" d="M 52.058594 145.976562 L 43.652344 154.511719 "/>
<path style="fill:none;stroke-width:1.2;stroke-linecap:butt;stroke-linejoin:miter;stroke:rgb(20%,80%,80%);stroke-opacity:1;stroke-miterlimit:10;" d="M 43.652344 154.511719 L 35.25 163.042969 "/>
<path style=" stroke:none;fill-rule:nonzero;fill:rgb(100%,100%,100%);fill-opacity:1;" d="M 29.25 157.542969 L 35.25 157.542969 L 35.25 168.542969 L 29.25 168.542969 Z M 29.25 157.542969 "/>
<g style="fill:rgb(20%,80%,80%);fill-opacity:1;">
  <use xlink:href="#glyph0-1" x="29.25" y="166.206055"/>
</g>
<path style="fill:none;stroke-width:1.2;stroke-linecap:butt;stroke-linejoin:miter;stroke:rgb(0%,0%,0%);stroke-opacity:1;stroke-miterlimit:10;" d="M 115.226562 140.964844 L 118.414062 152.507812 "/>
<path style="fill:none;stroke-width:1.2;stroke-linecap:butt;stroke-linejoin:miter;stroke:rgb(0%,0%,100%);stroke-opacity:1;stroke-miterlimit:10;" d="M 118.414062 152.507812 L 121.601562 164.050781 "/>
<path style="fill:none;stroke-width:1.2;stroke-linecap:butt;stroke-linejoin:miter;stroke:rgb(0%,0%,0%);stroke-opacity:1;stroke-miterlimit:10;" d="M 121.296875 141.773438 L 123.847656 151.007812 "/>
<path style="fill:none;stroke-width:1.2;stroke-linecap:butt;stroke-linejoin:miter;stroke:rgb(0%,0%,100%);stroke-opacity:1;stroke-miterlimit:10;" d="M 123.847656 151.007812 L 126.398438 160.242188 "/>
<path style="fill:none;stroke-width:1.2;stroke-linecap:butt;stroke-linejoin:miter;stroke:rgb(0%,0%,0%);stroke-opacity:1;stroke-miterlimit:10;" d="M 132.035156 123.898438 L 115.226562 140.964844 "/>
<path style="fill:none;stroke-width:1.2;stroke-linecap:butt;stroke-linejoin:miter;stroke:rgb(0%,0%,100%);stroke-opacity:1;stroke-miterlimit:10;" d="M 121.601562 164.050781 L 133.191406 167.0625 "/>
<path style="fill:none;stroke-width:1.2;stroke-linecap:butt;stroke-linejoin:miter;stroke:rgb(0%,0%,0%);stroke-opacity:1;stroke-miterlimit:10;" d="M 133.191406 167.0625 L 144.78125 170.074219 "/>
<path style=" stroke:none;fill-rule:nonzero;fill:rgb(100%,100%,100%);fill-opacity:1;" d="M 118.601562 158.550781 L 125.601562 158.550781 L 125.601562 169.550781 L 118.601562 169.550781 Z M 118.601562 158.550781 "/>
<g style="fill:rgb(0%,0%,100%);fill-opacity:1;">
  <use xlink:href="#glyph0-2" x="118.601562" y="167.213867"/>
</g>
<path style="fill:none;stroke-width:1.2;stroke-linecap:butt;stroke-linejoin:miter;stroke:rgb(0%,0%,0%);stroke-opacity:1;stroke-miterlimit:10;" d="M 144.78125 170.074219 L 151.15625 193.164062 "/>
<path style="fill:none;stroke-width:1.2;stroke-linecap:butt;stroke-linejoin:miter;stroke:rgb(0%,0%,0%);stroke-opacity:1;stroke-miterlimit:10;" d="M 150.851562 170.882812 L 155.953125 189.355469 "/>
<path style="fill:none;stroke-width:1.2;stroke-linecap:butt;stroke-linejoin:miter;stroke:rgb(0%,0%,0%);stroke-opacity:1;stroke-miterlimit:10;" d="M 161.589844 153.011719 L 144.78125 170.074219 "/>
<path style="fill:none;stroke-width:1.2;stroke-linecap:butt;stroke-linejoin:miter;stroke:rgb(0%,0%,0%);stroke-opacity:1;stroke-miterlimit:10;" d="M 151.15625 193.164062 L 162.746094 196.175781 "/>
<path style="fill:none;stroke-width:1.2;stroke-linecap:butt;stroke-linejoin:miter;stroke:rgb(0%,0%,100%);stroke-opacity:1;stroke-miterlimit:10;" d="M 162.746094 196.175781 L 174.335938 199.1875 "/>
<path style="fill:none;stroke-width:1.2;stroke-linecap:butt;stroke-linejoin:miter;stroke:rgb(0%,0%,100%);stroke-opacity:1;stroke-miterlimit:10;" d="M 174.335938 199.1875 L 182.742188 190.65625 "/>
<path style="fill:none;stroke-width:1.2;stroke-linecap:butt;stroke-linejoin:miter;stroke:rgb(0%,0%,0%);stroke-opacity:1;stroke-miterlimit:10;" d="M 182.742188 190.65625 L 191.144531 182.125 "/>
<path style="fill:none;stroke-width:1.2;stroke-linecap:butt;stroke-linejoin:miter;stroke:rgb(0%,0%,100%);stroke-opacity:1;stroke-miterlimit:10;" d="M 172.003906 193.527344 L 178.726562 186.699219 "/>
<path style="fill:none;stroke-width:1.2;stroke-linecap:butt;stroke-linejoin:miter;stroke:rgb(0%,0%,0%);stroke-opacity:1;stroke-miterlimit:10;" d="M 178.726562 186.699219 L 185.449219 179.875 "/>
<path style=" stroke:none;fill-rule:nonzero;fill:rgb(100%,100%,100%);fill-opacity:1;" d="M 171.335938 193.6875 L 178.335938 193.6875 L 178.335938 204.6875 L 171.335938 204.6875 Z M 171.335938 193.6875 "/>
<g style="fill:rgb(0%,0%,100%);fill-opacity:1;">
  <use xlink:href="#glyph0-2" x="171.335938" y="202.350586"/>
</g>
<path style="fill:none;stroke-width:1.2;stroke-linecap:butt;stroke-linejoin:miter;stroke:rgb(0%,0%,0%);stroke-opacity:1;stroke-miterlimit:10;" d="M 191.144531 182.125 L 187.957031 170.582031 "/>
<path style="fill:none;stroke-width:1.2;stroke-linecap:butt;stroke-linejoin:miter;stroke:rgb(0%,0%,100%);stroke-opacity:1;stroke-miterlimit:10;" d="M 187.957031 170.582031 L 184.773438 159.035156 "/>
<path style="fill:none;stroke-width:1.2;stroke-linecap:butt;stroke-linejoin:miter;stroke:rgb(0%,0%,100%);stroke-opacity:1;stroke-miterlimit:10;" d="M 184.773438 159.035156 L 173.179688 156.023438 "/>
<path style="fill:none;stroke-width:1.2;stroke-linecap:butt;stroke-linejoin:miter;stroke:rgb(0%,0%,0%);stroke-opacity:1;stroke-miterlimit:10;" d="M 173.179688 156.023438 L 161.589844 153.011719 "/>
<path style="fill:none;stroke-width:1.2;stroke-linecap:butt;stroke-linejoin:miter;stroke:rgb(0%,0%,100%);stroke-opacity:1;stroke-miterlimit:10;" d="M 181.035156 163.886719 L 171.765625 161.480469 "/>
<path style="fill:none;stroke-width:1.2;stroke-linecap:butt;stroke-linejoin:miter;stroke:rgb(0%,0%,0%);stroke-opacity:1;stroke-miterlimit:10;" d="M 171.765625 161.480469 L 162.492188 159.070312 "/>
<path style=" stroke:none;fill-rule:nonzero;fill:rgb(100%,100%,100%);fill-opacity:1;" d="M 181.773438 153.535156 L 188.773438 153.535156 L 188.773438 164.535156 L 181.773438 164.535156 Z M 181.773438 153.535156 "/>
<g style="fill:rgb(0%,0%,100%);fill-opacity:1;">
  <use xlink:href="#glyph0-2" x="181.773438" y="162.198242"/>
</g>
<path style="fill:none;stroke-width:1.2;stroke-linecap:butt;stroke-linejoin:miter;stroke:rgb(0%,0%,0%);stroke-opacity:1;stroke-miterlimit:10;" d="M 161.589844 153.011719 L 158.402344 141.46875 "/>
<path style="fill:none;stroke-width:1.2;stroke-linecap:butt;stroke-linejoin:miter;stroke:rgb(0%,0%,100%);stroke-opacity:1;stroke-miterlimit:10;" d="M 158.402344 141.46875 L 155.21875 129.925781 "/>
<path style="fill:none;stroke-width:1.2;stroke-linecap:butt;stroke-linejoin:miter;stroke:rgb(0%,0%,100%);stroke-opacity:1;stroke-miterlimit:10;" d="M 155.21875 129.925781 L 143.625 126.914062 "/>
<path style="fill:none;stroke-width:1.2;stroke-linecap:butt;stroke-linejoin:miter;stroke:rgb(0%,0%,0%);stroke-opacity:1;stroke-miterlimit:10;" d="M 143.625 126.914062 L 132.035156 123.898438 "/>
<path style="fill:none;stroke-width:1.2;stroke-linecap:butt;stroke-linejoin:miter;stroke:rgb(0%,0%,100%);stroke-opacity:1;stroke-miterlimit:10;" d="M 155.21875 129.925781 L 163.621094 121.394531 "/>
<path style="fill:none;stroke-width:1.2;stroke-linecap:butt;stroke-linejoin:miter;stroke:rgb(0%,0%,0%);stroke-opacity:1;stroke-miterlimit:10;" d="M 163.621094 121.394531 L 172.023438 112.859375 "/>
<path style=" stroke:none;fill-rule:nonzero;fill:rgb(100%,100%,100%);fill-opacity:1;" d="M 152.21875 124.425781 L 159.21875 124.425781 L 159.21875 135.425781 L 152.21875 135.425781 Z M 152.21875 124.425781 "/>
<g style="fill:rgb(0%,0%,100%);fill-opacity:1;">
  <use xlink:href="#glyph0-2" x="152.21875" y="133.088867"/>
</g>
<path style="fill:none;stroke-width:1.2;stroke-linecap:butt;stroke-linejoin:miter;stroke:rgb(0%,0%,0%);stroke-opacity:1;stroke-miterlimit:10;" d="M 134.753906 123.148438 L 131.566406 111.605469 "/>
<path style="fill:none;stroke-width:1.2;stroke-linecap:butt;stroke-linejoin:miter;stroke:rgb(100%,0%,0%);stroke-opacity:1;stroke-miterlimit:10;" d="M 131.566406 111.605469 L 128.378906 100.0625 "/>
<path style="fill:none;stroke-width:1.2;stroke-linecap:butt;stroke-linejoin:miter;stroke:rgb(0%,0%,0%);stroke-opacity:1;stroke-miterlimit:10;" d="M 129.320312 124.648438 L 126.132812 113.105469 "/>
<path style="fill:none;stroke-width:1.2;stroke-linecap:butt;stroke-linejoin:miter;stroke:rgb(100%,0%,0%);stroke-opacity:1;stroke-miterlimit:10;" d="M 126.132812 113.105469 L 122.945312 101.5625 "/>
<path style=" stroke:none;fill-rule:nonzero;fill:rgb(100%,100%,100%);fill-opacity:1;" d="M 121.664062 95.3125 L 129.664062 95.3125 L 129.664062 106.3125 L 121.664062 106.3125 Z M 121.664062 95.3125 "/>
<g style="fill:rgb(100%,0%,0%);fill-opacity:1;">
  <use xlink:href="#glyph0-3" x="121.664062" y="103.975586"/>
</g>
<path style="fill:none;stroke-width:1.2;stroke-linecap:butt;stroke-linejoin:miter;stroke:rgb(0%,0%,0%);stroke-opacity:1;stroke-miterlimit:10;" d="M 172.023438 112.859375 L 195.207031 118.886719 "/>
<path style="fill:none;stroke-width:1.2;stroke-linecap:butt;stroke-linejoin:miter;stroke:rgb(0%,0%,0%);stroke-opacity:1;stroke-miterlimit:10;" d="M 195.207031 118.886719 L 201.578125 141.972656 "/>
<path style="fill:none;stroke-width:1.2;stroke-linecap:butt;stroke-linejoin:miter;stroke:rgb(0%,0%,0%);stroke-opacity:1;stroke-miterlimit:10;" d="M 201.277344 119.695312 L 206.375 138.164062 "/>
<path style="fill:none;stroke-width:1.2;stroke-linecap:butt;stroke-linejoin:miter;stroke:rgb(0%,0%,0%);stroke-opacity:1;stroke-miterlimit:10;" d="M 212.015625 101.820312 L 195.207031 118.886719 "/>
<path style="fill:none;stroke-width:1.2;stroke-linecap:butt;stroke-linejoin:miter;stroke:rgb(0%,0%,0%);stroke-opacity:1;stroke-miterlimit:10;" d="M 201.578125 141.972656 L 224.761719 147.996094 "/>
<path style="fill:none;stroke-width:1.2;stroke-linecap:butt;stroke-linejoin:miter;stroke:rgb(0%,0%,0%);stroke-opacity:1;stroke-miterlimit:10;" d="M 224.761719 147.996094 L 241.570312 130.933594 "/>
<path style="fill:none;stroke-width:1.2;stroke-linecap:butt;stroke-linejoin:miter;stroke:rgb(0%,0%,0%);stroke-opacity:1;stroke-miterlimit:10;" d="M 222.425781 142.335938 L 235.871094 128.683594 "/>
<path style="fill:none;stroke-width:1.2;stroke-linecap:butt;stroke-linejoin:miter;stroke:rgb(0%,0%,0%);stroke-opacity:1;stroke-miterlimit:10;" d="M 241.570312 130.933594 L 235.195312 107.847656 "/>
<path style="fill:none;stroke-width:1.2;stroke-linecap:butt;stroke-linejoin:miter;stroke:rgb(0%,0%,0%);stroke-opacity:1;stroke-miterlimit:10;" d="M 241.570312 130.933594 L 253.160156 133.945312 "/>
<path style="fill:none;stroke-width:1.2;stroke-linecap:butt;stroke-linejoin:miter;stroke:rgb(20%,80%,80%);stroke-opacity:1;stroke-miterlimit:10;" d="M 253.160156 133.945312 L 264.75 136.957031 "/>
<path style="fill:none;stroke-width:1.2;stroke-linecap:butt;stroke-linejoin:miter;stroke:rgb(0%,0%,0%);stroke-opacity:1;stroke-miterlimit:10;" d="M 235.195312 107.847656 L 212.015625 101.820312 "/>
<path style="fill:none;stroke-width:1.2;stroke-linecap:butt;stroke-linejoin:miter;stroke:rgb(0%,0%,0%);stroke-opacity:1;stroke-miterlimit:10;" d="M 231.460938 112.699219 L 212.914062 107.878906 "/>
<path style=" stroke:none;fill-rule:nonzero;fill:rgb(100%,100%,100%);fill-opacity:1;" d="M 261.75 131.457031 L 267.75 131.457031 L 267.75 142.457031 L 261.75 142.457031 Z M 261.75 131.457031 "/>
<g style="fill:rgb(20%,80%,80%);fill-opacity:1;">
  <use xlink:href="#glyph0-1" x="261.75" y="140.120117"/>
</g>
</g>
</svg>

<svg xmlns="http://www.w3.org/2000/svg" xmlns:xlink="http://www.w3.org/1999/xlink" width="300pt" height="300pt" viewBox="0 0 300 300"><defs><symbol overflow="visible"><path d="M.453 1.594v-7.938h4.5v7.938zm.5-.5h3.5v-6.938h-3.5zm0 0"/></symbol><symbol overflow="visible" id="a"><path d="M.89-6.563h3.766v.75h-2.89v1.938h2.61v.734h-2.61V0H.89zm0 0"/></symbol><symbol overflow="visible" id="b"><path d="M.89-6.563H2.08l2.906 5.485v-5.484h.86V0H4.656L1.75-5.484V0H.89zm0 0"/></symbol><symbol overflow="visible" id="c"><path d="M3.547-5.953c-.65 0-1.164.242-1.547.72-.375.48-.563 1.13-.563 1.952 0 .835.188 1.49.563 1.967.383.48.898.72 1.547.72.644 0 1.156-.24 1.53-.72.376-.476.564-1.132.564-1.968 0-.822-.187-1.474-.562-1.954-.375-.477-.887-.72-1.53-.72zm0-.734c.914 0 1.648.312 2.203.937.55.617.828 1.438.828 2.47 0 1.042-.277 1.87-.828 2.483-.555.617-1.29.922-2.203.922-.93 0-1.668-.305-2.22-.922C.774-1.41.5-2.237.5-3.28c0-1.033.273-1.853.828-2.47.55-.625 1.29-.938 2.22-.938zm0 0"/></symbol></defs><g><path fill="#fff" d="M0 0h300v300H0z"/><path d="M62.492 105.828l23.18 6.024M63.395 111.883l18.542 4.82M45.684 122.89l16.808-17.062M85.672 111.852l6.375 23.085M92.047 134.938l-16.81 17.066M86.352 132.69l-13.446 13.65M92.047 134.938l23.18 6.027M75.238 152.004l-23.18-6.027M52.06 145.977l-6.376-23.086M56.852 142.172L51.754 123.7M52.06 145.977l-8.408 8.535" stroke-width="1.2" stroke="#000" stroke-miterlimit="10" fill="none"/><path d="M43.652 154.512l-8.402 8.53" stroke-width="1.2" stroke="#3cc" stroke-miterlimit="10" fill="none"/><path d="M29.25 157.543h6v11h-6zm0 0" fill="#fff"/><use xlink:href="#a" x="29.25" y="166.206" fill="#3cc"/><path d="M115.227 140.965l3.187 11.543" stroke-width="1.2" stroke="#000" stroke-miterlimit="10" fill="none"/><path d="M118.414 152.508l3.188 11.543" stroke-width="1.2" stroke="#00f" stroke-miterlimit="10" fill="none"/><path d="M121.297 141.773l2.55 9.235" stroke-width="1.2" stroke="#000" stroke-miterlimit="10" fill="none"/><path d="M123.848 151.008l2.55 9.234" stroke-width="1.2" stroke="#00f" stroke-miterlimit="10" fill="none"/><path d="M132.035 123.898l-16.808 17.067" stroke-width="1.2" stroke="#000" stroke-miterlimit="10" fill="none"/><path d="M121.602 164.05l11.59 3.012" stroke-width="1.2" stroke="#00f" stroke-miterlimit="10" fill="none"/><path d="M133.19 167.063l11.59 3.01" stroke-width="1.2" stroke="#000" stroke-miterlimit="10" fill="none"/><path d="M118.602 158.55h7v11h-7zm0 0" fill="#fff"/><use xlink:href="#b" x="118.602" y="167.214" fill="#00f"/><path d="M144.78 170.074l6.376 23.09M150.852 170.883l5.1 18.472M161.59 153.012l-16.81 17.062M151.156 193.164l11.59 3.012" stroke-width="1.2" stroke="#000" stroke-miterlimit="10" fill="none"/><path d="M162.746 196.176l11.59 3.012M174.336 199.188l8.406-8.532" stroke-width="1.2" stroke="#00f" stroke-miterlimit="10" fill="none"/><path d="M182.742 190.656l8.403-8.53" stroke-width="1.2" stroke="#000" stroke-miterlimit="10" fill="none"/><path d="M172.004 193.527l6.723-6.828" stroke-width="1.2" stroke="#00f" stroke-miterlimit="10" fill="none"/><path d="M178.727 186.7l6.722-6.825" stroke-width="1.2" stroke="#000" stroke-miterlimit="10" fill="none"/><path d="M171.336 193.688h7v11h-7zm0 0" fill="#fff"/><use xlink:href="#b" x="171.336" y="202.351" fill="#00f"/><path d="M191.145 182.125l-3.188-11.543" stroke-width="1.2" stroke="#000" stroke-miterlimit="10" fill="none"/><path d="M187.957 170.582l-3.184-11.547M184.773 159.035l-11.593-3.012" stroke-width="1.2" stroke="#00f" stroke-miterlimit="10" fill="none"/><path d="M173.18 156.023l-11.59-3.01" stroke-width="1.2" stroke="#000" stroke-miterlimit="10" fill="none"/><path d="M181.035 163.887l-9.27-2.407" stroke-width="1.2" stroke="#00f" stroke-miterlimit="10" fill="none"/><path d="M171.766 161.48l-9.274-2.41" stroke-width="1.2" stroke="#000" stroke-miterlimit="10" fill="none"/><path d="M181.773 153.535h7v11h-7zm0 0" fill="#fff"/><use xlink:href="#b" x="181.773" y="162.198" fill="#00f"/><path d="M161.59 153.012l-3.188-11.543" stroke-width="1.2" stroke="#000" stroke-miterlimit="10" fill="none"/><path d="M158.402 141.47l-3.183-11.544M155.22 129.926l-11.595-3.012" stroke-width="1.2" stroke="#00f" stroke-miterlimit="10" fill="none"/><path d="M143.625 126.914l-11.59-3.016" stroke-width="1.2" stroke="#000" stroke-miterlimit="10" fill="none"/><path d="M155.22 129.926l8.4-8.53" stroke-width="1.2" stroke="#00f" stroke-miterlimit="10" fill="none"/><path d="M163.62 121.395l8.403-8.536" stroke-width="1.2" stroke="#000" stroke-miterlimit="10" fill="none"/><path d="M152.22 124.426h7v11h-7zm0 0" fill="#fff"/><use xlink:href="#b" x="152.219" y="133.089" fill="#00f"/><path d="M134.754 123.148l-3.188-11.543" stroke-width="1.2" stroke="#000" stroke-miterlimit="10" fill="none"/><path d="M131.566 111.605l-3.187-11.543" stroke-width="1.2" stroke="#f00" stroke-miterlimit="10" fill="none"/><path d="M129.32 124.648l-3.187-11.543" stroke-width="1.2" stroke="#000" stroke-miterlimit="10" fill="none"/><path d="M126.133 113.105l-3.188-11.543" stroke-width="1.2" stroke="#f00" stroke-miterlimit="10" fill="none"/><path d="M121.664 95.313h8v11h-8zm0 0" fill="#fff"/><use xlink:href="#c" x="121.664" y="103.976" fill="#f00"/><path d="M172.023 112.86l23.184 6.027M195.207 118.887l6.37 23.086M201.277 119.695l5.098 18.47M212.016 101.82l-16.81 17.067M201.578 141.973l23.184 6.023M224.762 147.996l16.808-17.062M222.426 142.336l13.445-13.652M241.57 130.934l-6.375-23.086M241.57 130.934l11.59 3.01" stroke-width="1.2" stroke="#000" stroke-miterlimit="10" fill="none"/><path d="M253.16 133.945l11.59 3.012" stroke-width="1.2" stroke="#3cc" stroke-miterlimit="10" fill="none"/><path d="M235.195 107.848l-23.18-6.028M231.46 112.7l-18.546-4.82" stroke-width="1.2" stroke="#000" stroke-miterlimit="10" fill="none"/><path d="M261.75 131.457h6v11h-6zm0 0" fill="#fff"/><use xlink:href="#a" x="261.75" y="140.12" fill="#3cc"/></g></svg>
